X: 31
T: Out On The Ocean
Z: fionán
S: https://thesession.org/tunes/108#setting53107
R: jig
M: 6/8
L: 1/8
K: Gmaj
|:D2B BAG|BdB ABA|GED G2A|BdB BAE|
D2B BAG|BdB ABA|GED G2A|1BGF G2 E:|2BGF GBd||
|:ege edB|ege edB|ded def|gfe dBA|
G2 A B2 d|ege dBA|GED G2A|1BGF GBd:|2BGF GFE||

